!!!!SEGMENT: pl-kk--kk-i-111--008-004_anonim--deo-gratias-ferijs-5tis.krn
!!!cenid: 18xx:2574
!!!COM: Anonim
!!!COM-rism: pe30004985
!!!CDT:
!!!CNT:
!!!OTL: Deo gratias – Ferijs 5tis
!!!PDT: 1824
!!!AGN: Sacred
!!!SMS-siglum: PL-Kk
!!!SMS-shelfmark: Kk.I.111
!!!NIFC-rismID: 1001157689
!!!URL-scan: http://repozytorium.nifc.pl/skany/pl-kk-nut--i-111
!!!ONB-nifc: UWAGA: A, T1, T2. Podział na poszególne Deo gratias. A: skan 0003 (m.in)
!!!SMS-variant:
!!!SMS-altvar:
**kern	**text	**kern	**text	**kern	**text
*part3	*part3	*part2	*part2	*part1	*part1
*staff3	*staff3	*staff2	*staff2	*staff1	*staff1
*I"Tenore Vagante.	*	*I"Tenore Chorale.	*	*I"Alto.	*
*I'T 2	*	*I'T 1	*	*I'A	*
*clefC4	*	*clefC4	*	*clefC3	*
*k[]	*	*k[]	*	*k[]	*
*M2/1	*	*M2/1	*	*M2/1	*
*met(C|)	*	*met(C|)	*	*met(C|)	*
*all\right	*	*	*	*all\right	*
=1-	=1-	=1-	=1-	=1-	=1-
!LO:TX:t=P:problem:kreska pseudotaktowa	!	!	!	!	!
!	!	!LO:TX:t=P:problem:kreska pseudotaktowa	!	!	!
1Bn	De-	1G	De-	2r	.
.	.	.	.	1g	De-
*2\right	*	*	*	*	*
!	!	!LO:TX:t=P:problem:kreska pseudotaktowa	!	!	!
2c\	-o	1G	.	.	.
*	*	*	*	*2\right	*
!	!	!	!	!LO:TX:t=P:problem:kreska pseudotaktowa	!
4B\	.	.	.	2d\	-o
!LO:TX:t=P:problem:kreska pseudotaktowa	!	!	!	!	!
4A\	.	.	.	.	.
=2-	=2-	=2-	=2-	=2-	=2-
!LO:TX:t=P:problem:kreska pseudotaktowa	!	!LO:TX:t=P:problem:kreska pseudotaktowa	!	!	!
1G	.	1E	-o	2.g\	gra-
!	!	!	!	!LO:TX:t=P:problem:kreska pseudotaktowa	!
.	.	.	.	4f\	.
!	!	!LO:TX:t=P:problem:kreska pseudotaktowa	!	!	!
2A\	gra-	1G	.	4e\	.
.	.	.	.	4d\	.
!	!	!	!	!LO:TX:t=P:problem:kreska pseudotaktowa	!
1G/	.	.	.	2e\	.
=3-	=3-	=3-	=3-	=3-	=3-
!	!	!LO:TX:t=P:problem:kreska pseudotaktowa	!	!	!
.	.	1Fn	.	2f\	.
!LO:TX:t=P:problem:kreska pseudotaktowa	!	!	!	!	!
2Fn/	-ti-	.	.	1d	.
!	!	!LO:TX:t=P:problem:kreska pseudotaktowa	!	!	!
2E/	-as	1E	.	.	.
!LO:TX:t=P:problem:kreska pseudotaktowa	!	!	!	!LO:TX:t=P:problem:kreska pseudotaktowa	!
2A\	De-	.	.	2c#X/	-ti-
=4-	=4-	=4-	=4-	=4-	=4-
!LO:TX:t=P:problem:kreska pseudotaktowa	!	!LO:TX:t=P:problem:kreska pseudotaktowa	!	!LO:TX:t=P:problem:kreska pseudotaktowa	!
1A	-o	1F	.	[1d	-as
!	!	!LO:TX:t=P:problem:kreska pseudotaktowa	!	!LO:TX:t=P:problem:kreska pseudotaktowa	!
2.B\	gra-	1D	.	1d]	.
!LO:TX:t=P:problem:kreska pseudotaktowa	!	!	!	!	!
4c\	.	.	.	.	.
=5-	=5-	=5-	=5-	=5-	=5-
!	!	!LO:TX:t=P:problem:kreska pseudotaktowa	!	!	!
2.d\	.	0F	gra-	2r	.
!	!	!	!	!LO:TX:t=P:problem:kreska pseudotaktowa	!
.	.	.	.	2B/	De-
!LO:TX:t=P:problem:kreska pseudotaktowa	!	!	!	!	!
4d\	-ti-	.	.	.	.
!	!	!	!	!LO:TX:t=P:problem:kreska pseudotaktowa	!
2d\	-as	.	.	1A	-o
1d\	De-	.	.	.	.
=6-	=6-	=6-	=6-	=6-	=6-
!	!	!LO:TX:t=P:problem:kreska pseudotaktowa	!	!	!
.	.	1E	.	1.A	gra-
!LO:TX:t=P:problem:kreska pseudotaktowa	!	!	!	!	!
2c\	-o	.	.	.	.
2.d\	gra-	2.F#X/	.	.	.
!	!	!	!	!LO:TX:t=P:problem:kreska pseudotaktowa	!
.	.	.	.	2A/	-ti-
!LO:TX:t=P:problem:kreska pseudotaktowa	!	!LO:TX:t=P:problem:kreska pseudotaktowa	!	!	!
4d\	-ti-	4F#/	-ti-	.	.
=7-	=7-	=7-	=7-	=7-	=7-
0d;>	-as	0G;>	-as.	0B;>	-as
=-	=-	=-	=-	=-	=-
*-	*-	*-	*-	*-	*-
!!!system-decoration: [(s1,s2,s3)]
!!!RDF**kern: < = below
!!!RDF**kern: > = above
!!!ENC: Marta Chmielewska
!!!END: 2021-08-04
!!!ENC: Tomasz Grochalski
!!!END: 2021-07-10
